Papirus/24x24/apps/com.github.weclaw1.ImageRoll.svg

<svg xmlns="http://www.w3.org/2000/svg" width="24" height="24" version="1">
 <path style="opacity:0.2" d="m 10,20.5 v 1.279297 C 10,22.178177 10.3345,22.5 10.75,22.5 h 10.5 C 21.6655,22.5 22,22.178177 22,21.779297 V 20.5 Z"/>
 <path style="opacity:0.2" d="M 2.5,6.5 C 2.223,6.5 2,6.723 2,7 v 9 c 0,0.277 0.223,0.5 0.5,0.5 H 6 V 19 c 0,0.277 0.223,0.5 0.5,0.5 h 5 C 11.777,19.5 12,19.277 12,19 V 16 7 C 12,6.723 11.777,6.5 11.5,6.5 Z m 0.75,1 h 0.5 C 3.8885,7.5 4,7.6115 4,7.75 v 1.5 C 4,9.3885 3.8885,9.5 3.75,9.5 H 3.25 C 3.1115,9.5 3,9.3885 3,9.25 V 7.75 C 3,7.6115 3.1115,7.5 3.25,7.5 Z m 2,0 h 0.5 C 5.8885,7.5 6,7.6115 6,7.75 v 1.5 C 6,9.3885 5.8885,9.5 5.75,9.5 H 5.25 C 5.1115,9.5 5,9.3885 5,9.25 V 7.75 C 5,7.6115 5.1115,7.5 5.25,7.5 Z m 2,0 h 0.5 C 7.8885,7.5 8,7.6115 8,7.75 v 1.5 C 8,9.3885 7.8885,9.5 7.75,9.5 H 7.25 C 7.1115,9.5 7,9.3885 7,9.25 V 7.75 C 7,7.6115 7.1115,7.5 7.25,7.5 Z m 2,0 h 0.5 C 9.8885,7.5 10,7.6115 10,7.75 v 1.5 C 10,9.3885 9.8885,9.5 9.75,9.5 H 9.25 C 9.1115,9.5 9,9.3885 9,9.25 V 7.75 C 9,7.6115 9.1115,7.5 9.25,7.5 Z m -2,9 h 0.5 C 7.8885,16.5 8,16.6115 8,16.75 v 1.5 C 8,18.3885 7.8885,18.5 7.75,18.5 H 7.25 C 7.1115,18.5 7,18.3885 7,18.25 v -1.5 C 7,16.6115 7.1115,16.5 7.25,16.5 Z m 2,0 h 0.5 c 0.1385,0 0.25,0.1115 0.25,0.25 v 1.5 C 10,18.3885 9.8885,18.5 9.75,18.5 H 9.25 C 9.1115,18.5 9,18.3885 9,18.25 v -1.5 C 9,16.6115 9.1115,16.5 9.25,16.5 Z"/>
 <path style="fill:#795548" d="M 2.5,6 C 2.223,6 2,6.223 2,6.5 v 9 C 2,15.777 2.223,16 2.5,16 H 6 v 2.5 C 6,18.777 6.223,19 6.5,19 h 5 c 0.277,0 0.5,-0.223 0.5,-0.5 v -3 -9 C 12,6.223 11.777,6 11.5,6 Z m 0.75,1 h 0.5 C 3.8885,7 4,7.1115 4,7.25 v 1.5 C 4,8.8885 3.8885,9 3.75,9 H 3.25 C 3.1115,9 3,8.8885 3,8.75 V 7.25 C 3,7.1115 3.1115,7 3.25,7 Z m 2,0 h 0.5 C 5.8885,7 6,7.1115 6,7.25 v 1.5 C 6,8.8885 5.8885,9 5.75,9 H 5.25 C 5.1115,9 5,8.8885 5,8.75 V 7.25 C 5,7.1115 5.1115,7 5.25,7 Z m 2,0 h 0.5 C 7.8885,7 8,7.1115 8,7.25 v 1.5 C 8,8.8885 7.8885,9 7.75,9 H 7.25 C 7.1115,9 7,8.8885 7,8.75 V 7.25 C 7,7.1115 7.1115,7 7.25,7 Z m 2,0 h 0.5 C 9.8885,7 10,7.1115 10,7.25 v 1.5 C 10,8.8885 9.8885,9 9.75,9 H 9.25 C 9.1115,9 9,8.8885 9,8.75 V 7.25 C 9,7.1115 9.1115,7 9.25,7 Z m -2,9 h 0.5 C 7.8885,16 8,16.1115 8,16.25 v 1.5 C 8,17.8885 7.8885,18 7.75,18 H 7.25 C 7.1115,18 7,17.8885 7,17.75 v -1.5 C 7,16.1115 7.1115,16 7.25,16 Z m 2,0 h 0.5 C 9.8885,16 10,16.1115 10,16.25 v 1.5 C 10,17.8885 9.8885,18 9.75,18 H 9.25 C 9.1115,18 9,17.8885 9,17.75 v -1.5 C 9,16.1115 9.1115,16 9.25,16 Z"/>
 <path style="opacity:0.1;fill:#ffffff" d="M 2.5,6 C 2.223,6 2,6.223 2,6.5 V 7 C 2,6.723 2.223,6.5 2.5,6.5 h 9 C 11.777,6.5 12,6.723 12,7 V 6.5 C 12,6.223 11.777,6 11.5,6 Z M 3,8.75 v 0.5 C 3,9.3885 3.1115,9.5 3.25,9.5 h 0.5 C 3.8885,9.5 4,9.3885 4,9.25 V 8.75 C 4,8.8885 3.8885,9 3.75,9 H 3.25 C 3.1115,9 3,8.8885 3,8.75 Z m 2,0 v 0.5 C 5,9.3885 5.1115,9.5 5.25,9.5 h 0.5 C 5.8885,9.5 6,9.3885 6,9.25 V 8.75 C 6,8.8885 5.8885,9 5.75,9 H 5.25 C 5.1115,9 5,8.8885 5,8.75 Z m 2,0 v 0.5 C 7,9.3885 7.1115,9.5 7.25,9.5 h 0.5 C 7.8885,9.5 8,9.3885 8,9.25 V 8.75 C 8,8.8885 7.8885,9 7.75,9 H 7.25 C 7.1115,9 7,8.8885 7,8.75 Z m 2,0 v 0.5 C 9,9.3885 9.1115,9.5 9.25,9.5 h 0.5 C 9.8885,9.5 10,9.3885 10,9.25 V 8.75 C 10,8.8885 9.8885,9 9.75,9 H 9.25 C 9.1115,9 9,8.8885 9,8.75 Z m -2,9 v 0.5 c 0,0.1385 0.1115,0.25 0.25,0.25 h 0.5 C 7.8885,18.5 8,18.3885 8,18.25 v -0.5 C 8,17.8885 7.8885,18 7.75,18 H 7.25 C 7.1115,18 7,17.8885 7,17.75 Z m 2,0 v 0.5 c 0,0.1385 0.1115,0.25 0.25,0.25 h 0.5 C 9.8885,18.5 10,18.3885 10,18.25 v -0.5 C 10,17.8885 9.8885,18 9.75,18 H 9.25 C 9.1115,18 9,17.8885 9,17.75 Z"/>
 <rect style="fill:#4f4f4f" width="6" height="3" x="13" y="2" rx=".75" ry=".75"/>
 <path style="opacity:0.1;fill:#ffffff" d="M 13.75,2 C 13.3345,2 13,2.3345 13,2.75 v 0.5 C 13,2.8345 13.3345,2.5 13.75,2.5 h 4.5 C 18.6655,2.5 19,2.8345 19,3.25 V 2.75 C 19,2.3345 18.6655,2 18.25,2 Z"/>
 <rect style="fill:#ff7800" width="12" height="16" x="10" y="5"/>
 <path style="opacity:0.2" d="M 13.5,8.5 C 13.223,8.5 13,8.723 13,9 v 1.5 h -0.5 c -0.277,0 -0.5,0.223 -0.5,0.5 0,0.277 0.223,0.5 0.5,0.5 H 13 V 15 c 0,0.277 0.223,0.5 0.5,0.5 H 18 V 17 c 0,0.277 0.223,0.5 0.5,0.5 0.277,0 0.5,-0.223 0.5,-0.5 v -1.5 h 0.5 c 0.277,0 0.5,-0.223 0.5,-0.5 0,-0.277 -0.223,-0.5 -0.5,-0.5 H 19 V 11 c 0,-0.277 -0.223,-0.5 -0.5,-0.5 H 14 V 9 C 14,8.723 13.777,8.5 13.5,8.5 Z m 0.5,3 h 4 v 3 h -4 z"/>
 <path style="fill:#795548" d="M 13.5,8 C 13.223,8 13,8.223 13,8.5 V 10 h -0.5 c -0.277,0 -0.5,0.223 -0.5,0.5 0,0.277 0.223,0.5 0.5,0.5 H 13 v 3.5 c 0,0.277 0.223,0.5 0.5,0.5 H 18 v 1.5 c 0,0.277 0.223,0.5 0.5,0.5 0.277,0 0.5,-0.223 0.5,-0.5 V 15 h 0.5 C 19.777,15 20,14.777 20,14.5 20,14.223 19.777,14 19.5,14 H 19 V 10.5 C 19,10.223 18.777,10 18.5,10 H 14 V 8.5 C 14,8.223 13.777,8 13.5,8 Z m 0.5,3 h 4 v 3 h -4 z"/>
 <path style="fill:#4f4f4f" d="m 10,20 v 1.279297 C 10,21.678177 10.3345,22 10.75,22 h 10.5 C 21.6655,22 22,21.678177 22,21.279297 V 20 Z"/>
 <path style="fill:#4f4f4f" d="M 10.75,4 C 10.3345,4 10,4.3218231 10,4.7207031 V 6 H 22 V 4.7207031 C 22,4.3218231 21.6655,4 21.25,4 Z"/>
 <path style="opacity:0.1;fill:#ffffff" d="M 10.75,4 C 10.3345,4 10,4.3218231 10,4.7207031 v 0.5 C 10,4.8218231 10.3345,4.5 10.75,4.5 h 10.5 C 21.6655,4.5 22,4.8218231 22,5.2207031 v -0.5 C 22,4.3218231 21.6655,4 21.25,4 Z"/>
 <rect style="opacity:0.2" width="12" height=".5" x="10" y="20"/>
</svg>

<svg xmlns="http://www.w3.org/2000/svg" width="24" height="24" version="1">
 <path style="opacity:0.2" d="M 2.5,6.5 C 2.223,6.5 2,6.723 2,7 v 9 c 0,0.277 0.223,0.5 0.5,0.5 H 6 V 19 c 0,0.277 0.223,0.5 0.5,0.5 h 5 C 11.777,19.5 12,19.277 12,19 V 16 7 C 12,6.723 11.777,6.5 11.5,6.5 Z m 0.75,1 h 0.5 C 3.8885,7.5 4,7.6115 4,7.75 v 1.5 C 4,9.3885 3.8885,9.5 3.75,9.5 H 3.25 C 3.1115,9.5 3,9.3885 3,9.25 V 7.75 C 3,7.6115 3.1115,7.5 3.25,7.5 Z m 2,0 h 0.5 C 5.8885,7.5 6,7.6115 6,7.75 v 1.5 C 6,9.3885 5.8885,9.5 5.75,9.5 H 5.25 C 5.1115,9.5 5,9.3885 5,9.25 V 7.75 C 5,7.6115 5.1115,7.5 5.25,7.5 Z m 2,0 h 0.5 C 7.8885,7.5 8,7.6115 8,7.75 v 1.5 C 8,9.3885 7.8885,9.5 7.75,9.5 H 7.25 C 7.1115,9.5 7,9.3885 7,9.25 V 7.75 C 7,7.6115 7.1115,7.5 7.25,7.5 Z m 2,0 h 0.5 C 9.8885,7.5 10,7.6115 10,7.75 v 1.5 C 10,9.3885 9.8885,9.5 9.75,9.5 H 9.25 C 9.1115,9.5 9,9.3885 9,9.25 V 7.75 C 9,7.6115 9.1115,7.5 9.25,7.5 Z m -2,9 h 0.5 C 7.8885,16.5 8,16.6115 8,16.75 v 1.5 C 8,18.3885 7.8885,18.5 7.75,18.5 H 7.25 C 7.1115,18.5 7,18.3885 7,18.25 v -1.5 C 7,16.6115 7.1115,16.5 7.25,16.5 Z m 2,0 h 0.5 c 0.1385,0 0.25,0.1115 0.25,0.25 v 1.5 C 10,18.3885 9.8885,18.5 9.75,18.5 H 9.25 C 9.1115,18.5 9,18.3885 9,18.25 v -1.5 C 9,16.6115 9.1115,16.5 9.25,16.5 Z"/>
 <path style="fill:#795548" d="M 2.5 6 C 2.223 6 2 6.223 2 6.5 L 2 15.5 C 2 15.777 2.223 16 2.5 16 L 6 16 L 6 18.5 C 6 18.777 6.223 19 6.5 19 L 11.5 19 C 11.777 19 12 18.777 12 18.5 L 12 15.5 L 12 6.5 C 12 6.223 11.777 6 11.5 6 L 2.5 6 z M 3.25 7 L 3.75 7 C 3.8885 7 4 7.1115 4 7.25 L 4 8.75 C 4 8.8885 3.8885 9 3.75 9 L 3.25 9 C 3.1115 9 3 8.8885 3 8.75 L 3 7.25 C 3 7.1115 3.1115 7 3.25 7 z M 5.25 7 L 5.75 7 C 5.8885 7 6 7.1115 6 7.25 L 6 8.75 C 6 8.8885 5.8885 9 5.75 9 L 5.25 9 C 5.1115 9 5 8.8885 5 8.75 L 5 7.25 C 5 7.1115 5.1115 7 5.25 7 z M 7.25 7 L 7.75 7 C 7.8885 7 8 7.1115 8 7.25 L 8 8.75 C 8 8.8885 7.8885 9 7.75 9 L 7.25 9 C 7.1115 9 7 8.8885 7 8.75 L 7 7.25 C 7 7.1115 7.1115 7 7.25 7 z M 9.25 7 L 9.75 7 C 9.8885 7 10 7.1115 10 7.25 L 10 8.75 C 10 8.8885 9.8885 9 9.75 9 L 9.25 9 C 9.1115 9 9 8.8885 9 8.75 L 9 7.25 C 9 7.1115 9.1115 7 9.25 7 z M 7.25 16 L 7.75 16 C 7.8885 16 8 16.1115 8 16.25 L 8 17.75 C 8 17.8885 7.8885 18 7.75 18 L 7.25 18 C 7.1115 18 7 17.8885 7 17.75 L 7 16.25 C 7 16.1115 7.1115 16 7.25 16 z M 9.25 16 L 9.75 16 C 9.8885 16 10 16.1115 10 16.25 L 10 17.75 C 10 17.8885 9.8885 18 9.75 18 L 9.25 18 C 9.1115 18 9 17.8885 9 17.75 L 9 16.25 C 9 16.1115 9.1115 16 9.25 16 z"/>
 <path style="fill:#ffffff;opacity:0.1" d="M 2.5 6 C 2.223 6 2 6.223 2 6.5 L 2 7 C 2 6.723 2.223 6.5 2.5 6.5 L 11.5 6.5 C 11.777 6.5 12 6.723 12 7 L 12 6.5 C 12 6.223 11.777 6 11.5 6 L 2.5 6 z M 3 8.75 L 3 9.25 C 3 9.3885 3.1115 9.5 3.25 9.5 L 3.75 9.5 C 3.8885 9.5 4 9.3885 4 9.25 L 4 8.75 C 4 8.8885 3.8885 9 3.75 9 L 3.25 9 C 3.1115 9 3 8.8885 3 8.75 z M 5 8.75 L 5 9.25 C 5 9.3885 5.1115 9.5 5.25 9.5 L 5.75 9.5 C 5.8885 9.5 6 9.3885 6 9.25 L 6 8.75 C 6 8.8885 5.8885 9 5.75 9 L 5.25 9 C 5.1115 9 5 8.8885 5 8.75 z M 7 8.75 L 7 9.25 C 7 9.3885 7.1115 9.5 7.25 9.5 L 7.75 9.5 C 7.8885 9.5 8 9.3885 8 9.25 L 8 8.75 C 8 8.8885 7.8885 9 7.75 9 L 7.25 9 C 7.1115 9 7 8.8885 7 8.75 z M 9 8.75 L 9 9.25 C 9 9.3885 9.1115 9.5 9.25 9.5 L 9.75 9.5 C 9.8885 9.5 10 9.3885 10 9.25 L 10 8.75 C 10 8.8885 9.8885 9 9.75 9 L 9.25 9 C 9.1115 9 9 8.8885 9 8.75 z M 7 17.75 L 7 18.25 C 7 18.3885 7.1115 18.5 7.25 18.5 L 7.75 18.5 C 7.8885 18.5 8 18.3885 8 18.25 L 8 17.75 C 8 17.8885 7.8885 18 7.75 18 L 7.25 18 C 7.1115 18 7 17.8885 7 17.75 z M 9 17.75 L 9 18.25 C 9 18.3885 9.1115 18.5 9.25 18.5 L 9.75 18.5 C 9.8885 18.5 10 18.3885 10 18.25 L 10 17.75 C 10 17.8885 9.8885 18 9.75 18 L 9.25 18 C 9.1115 18 9 17.8885 9 17.75 z"/>
 <rect style="opacity:0.2" width="12" height="18" x="10" y="4.5" rx=".75" ry=".72"/>
 <rect style="fill:#4f4f4f" width="6" height="3" x="13" y="2" rx=".75" ry=".75"/>
 <path style="fill:#ffffff;opacity:0.1" d="M 13.75 2 C 13.3345 2 13 2.3345 13 2.75 L 13 3.25 C 13 2.8345 13.3345 2.5 13.75 2.5 L 18.25 2.5 C 18.6655 2.5 19 2.8345 19 3.25 L 19 2.75 C 19 2.3345 18.6655 2 18.25 2 L 13.75 2 z"/>
 <rect style="fill:#ff7800" width="12" height="18" x="10" y="4" rx=".75" ry=".72"/>
 <path style="opacity:0.2" d="M 13.5,8.5 C 13.223,8.5 13,8.723 13,9 v 1.5 h -0.5 c -0.277,0 -0.5,0.223 -0.5,0.5 0,0.277 0.223,0.5 0.5,0.5 H 13 V 15 c 0,0.277 0.223,0.5 0.5,0.5 H 18 V 17 c 0,0.277 0.223,0.5 0.5,0.5 0.277,0 0.5,-0.223 0.5,-0.5 v -1.5 h 0.5 c 0.277,0 0.5,-0.223 0.5,-0.5 0,-0.277 -0.223,-0.5 -0.5,-0.5 H 19 V 11 c 0,-0.277 -0.223,-0.5 -0.5,-0.5 H 14 V 9 C 14,8.723 13.777,8.5 13.5,8.5 Z m 0.5,3 h 4 v 3 h -4 z"/>
 <path style="fill:#795548" d="M 13.5 8 C 13.223 8 13 8.223 13 8.5 L 13 10 L 12.5 10 C 12.223 10 12 10.223 12 10.5 C 12 10.777 12.223 11 12.5 11 L 13 11 L 13 14.5 C 13 14.777 13.223 15 13.5 15 L 18 15 L 18 16.5 C 18 16.777 18.223 17 18.5 17 C 18.777 17 19 16.777 19 16.5 L 19 15 L 19.5 15 C 19.777 15 20 14.777 20 14.5 C 20 14.223 19.777 14 19.5 14 L 19 14 L 19 10.5 C 19 10.223 18.777 10 18.5 10 L 14 10 L 14 8.5 C 14 8.223 13.777 8 13.5 8 z M 14 11 L 18 11 L 18 14 L 14 14 L 14 11 z"/>
 <path style="fill:#4f4f4f" d="m 10,20 v 1.279297 C 10,21.678177 10.3345,22 10.75,22 h 10.5 C 21.6655,22 22,21.678177 22,21.279297 V 20 Z"/>
 <path style="fill:#4f4f4f" d="M 10.75,4 C 10.3345,4 10,4.3218231 10,4.7207031 V 6 H 22 V 4.7207031 C 22,4.3218231 21.6655,4 21.25,4 Z"/>
 <path style="fill:#ffffff;opacity:0.1" d="M 10.75 4 C 10.3345 4 10 4.3218231 10 4.7207031 L 10 5.2207031 C 10 4.8218231 10.3345 4.5 10.75 4.5 L 21.25 4.5 C 21.6655 4.5 22 4.8218231 22 5.2207031 L 22 4.7207031 C 22 4.3218231 21.6655 4 21.25 4 L 10.75 4 z"/>
 <rect style="opacity:0.2" width="12" height=".5" x="10" y="20"/>
</svg>
